assets/skills.svg

<svg xmlns="http://www.w3.org/2000/svg" viewBox="0 0 512 512" style="height: 512px; width: 512px;"><path d="M0 0h512v512H0z" fill="#494e31" fill-opacity="1"></path><g class="" transform="translate(0,0)" style=""><path d="M119.1 25v.1c-25 3.2-47.1 32-47.1 68.8 0 20.4 7.1 38.4 17.5 50.9L99.7 157 84 159.9c-13.7 2.6-23.8 9.9-32.2 21.5-8.5 11.5-14.9 27.5-19.4 45.8-8.2 33.6-9.9 74.7-10.1 110.5h44l11.9 158.4h96.3L185 337.7h41.9c0-36.2-.3-77.8-7.8-111.7-4-18.5-10.2-34.4-18.7-45.9-8.6-11.4-19.2-18.7-34.5-21l-16-2.5L160 144c10-12.5 16.7-30.2 16.7-50.1 0-39.2-24.8-68.8-52.4-68.8-2.9 0-4.7-.1-5.2-.1zM440 33c-17.2 0-31 13.77-31 31s13.8 31 31 31 31-13.77 31-31-13.8-31-31-31zM311 55v48H208v18h103v158h-55v18h55v110H208v18h103v32h80.8c-.5-2.9-.8-5.9-.8-9 0-3.1.3-6.1.8-9H329V297h62.8c-.5-2.9-.8-5.9-.8-9 0-3.1.3-6.1.8-9H329V73h62.8c-.5-2.92-.8-5.93-.8-9 0-3.07.3-6.08.8-9H311zm129 202c-17.2 0-31 13.8-31 31s13.8 31 31 31 31-13.8 31-31-13.8-31-31-31zm0 160c-17.2 0-31 13.8-31 31s13.8 31 31 31 31-13.8 31-31-13.8-31-31-31z" fill="#ebe7d7" fill-opacity="1"></path></g></svg>

<?xml version="1.0" encoding="UTF-8" standalone="no"?>
<!DOCTYPE svg PUBLIC "-//W3C//DTD SVG 1.1//EN" "http://www.w3.org/Graphics/SVG/1.1/DTD/svg11.dtd">
<svg width="100%" height="100%" viewBox="0 0 512 512" version="1.1" xmlns="http://www.w3.org/2000/svg" xmlns:xlink="http://www.w3.org/1999/xlink" xml:space="preserve" xmlns:serif="http://www.serif.com/" style="fill-rule:evenodd;clip-rule:evenodd;stroke-linejoin:round;stroke-miterlimit:2;">
    <rect x="0" y="0" width="512" height="512" style="fill:rgb(26,34,56);fill-rule:nonzero;"/>
    <g>
        <path d="M119.1,25L119.1,25.1C94.1,28.3 72,57.1 72,93.9C72,114.3 79.1,132.3 89.5,144.8L99.7,157L84,159.9C70.3,162.5 60.2,169.8 51.8,181.4C43.3,192.9 36.9,208.9 32.4,227.2C24.2,260.8 22.5,301.9 22.3,337.7L66.3,337.7L78.2,496.1L174.5,496.1L185,337.7L226.9,337.7C226.9,301.5 226.6,259.9 219.1,226C215.1,207.5 208.9,191.6 200.4,180.1C191.8,168.7 181.2,161.4 165.9,159.1L149.9,156.6L160,144C170,131.5 176.7,113.8 176.7,93.9C176.7,54.7 151.9,25.1 124.3,25.1C121.4,25.1 119.6,25 119.1,25ZM440,33C422.8,33 409,46.77 409,64C409,81.23 422.8,95 440,95C457.2,95 471,81.23 471,64C471,46.77 457.2,33 440,33ZM311,55L311,103L208,103L208,121L311,121L311,279L256,279L256,297L311,297L311,407L208,407L208,425L311,425L311,457L391.8,457C391.3,454.1 391,451.1 391,448C391,444.9 391.3,441.9 391.8,439L329,439L329,297L391.8,297C391.3,294.1 391,291.1 391,288C391,284.9 391.3,281.9 391.8,279L329,279L329,73L391.8,73C391.3,70.08 391,67.07 391,64C391,60.93 391.3,57.92 391.8,55L311,55ZM440,257C422.8,257 409,270.8 409,288C409,305.2 422.8,319 440,319C457.2,319 471,305.2 471,288C471,270.8 457.2,257 440,257ZM440,417C422.8,417 409,430.8 409,448C409,465.2 422.8,479 440,479C457.2,479 471,465.2 471,448C471,430.8 457.2,417 440,417Z" style="fill:rgb(235,231,215);fill-rule:nonzero;"/>
    </g>
</svg>
